img/simple.svg

<svg width="70" height="72" viewBox="0 0 70 72" fill="none" xmlns="http://www.w3.org/2000/svg">
<path fill-rule="evenodd" clip-rule="evenodd" d="M33.1745 42.7734L16.1848 32.5859L0 41.9582V61.9556L17.2011 71.8609L33.1745 62.6282V42.7734ZM1.4238 61.1491V42.7624L16.1721 34.222L31.7507 43.5633V61.8232L17.1998 70.2338L1.4238 61.1491ZM70 43.4329L53.2294 33.4298L37.2527 42.6328V62.2743L54.232 72.0003L70 62.9343V43.4329ZM38.6764 61.4656V43.4391L53.2167 35.0637L68.5762 44.225V62.1272L54.2306 70.3753L38.6764 61.4656Z" fill="#3C3E4C"/>
<path fill-rule="evenodd" clip-rule="evenodd" d="M34.3439 0L51.1145 10.003V29.5045L35.3465 38.5704L18.3672 28.8444V9.20292L34.3439 0ZM19.791 10.0093V28.0358L35.3452 36.9455L49.6907 28.6974V10.7952L34.3312 1.63381L19.791 10.0093Z" fill="#DD3333"/>
<path fill-rule="evenodd" clip-rule="evenodd" d="M35.3592 40.3784L50.3381 32.0571L51.0367 33.281L36.0687 41.5962V60.6523H34.6449V41.5935L18.4414 32.4679L19.1473 31.248L35.3592 40.3784Z" fill="#3C3E4C"/>
</svg>

<svg width="70" height="72" viewBox="0 0 70 72" fill="none" xmlns="http://www.w3.org/2000/svg"><path fill-rule="evenodd" clip-rule="evenodd" d="M33.175 42.773l-16.99-10.187L0 41.958v19.998l17.201 9.905 15.974-9.233V42.773zM1.424 61.15V42.762l14.748-8.54 15.579 9.341v18.26L17.2 70.233 1.424 61.15zM70 43.433L53.23 33.43l-15.977 9.203v19.641L54.232 72 70 62.934V43.433zM38.676 61.466V43.439l14.54-8.375 15.36 9.161v17.902l-14.345 8.248-15.555-8.91z" fill="#3C3E4C"/><path fill-rule="evenodd" clip-rule="evenodd" d="M34.344 0l16.77 10.003v19.502L35.347 38.57l-16.98-9.726V9.203L34.344 0zM19.79 10.01v18.026l15.554 8.91 14.346-8.249V10.795L34.33 1.634l-14.54 8.375z" fill="#D33"/><path fill-rule="evenodd" clip-rule="evenodd" d="M35.36 40.378l14.978-8.32.699 1.223-14.968 8.315v19.056h-1.424V41.593L18.44 32.468l.706-1.22 16.212 9.13z" fill="#3C3E4C"/></svg>
